src/main/resources/icons/AllIcons/codeWithMe/cwmJump.svg

<!-- Copyright 2000-2021 JetBrains s.r.o. Use of this source code is governed by the Apache 2.0 license that can be found in the LICENSE file. -->
<svg xmlns="http://www.w3.org/2000/svg" width="16" height="16" viewBox="0 0 16 16">
  <g fill-rule="evenodd">
    <path fill="#6E6E6E" d="M10.4155,14 L14.9995,14 L14.9995,13 L11.4095,13 L10.4155,14 Z M12.9995,2 L9.9995,2 L9.9995,13 L12.9995,9.982 L12.9995,2 Z M11.9995,3 L11.9995,9.569 L10.9995,10.575 L10.9995,3 L11.9995,3 Z"/>
    <path fill="#389FD6" d="M4.976 10.76L3.876 9.74 5.954 7.5 3.876 5.26 4.976 4.24 8 7.5z"/>
  </g>
</svg>

<svg xmlns="http://www.w3.org/2000/svg" width="16" height="16" viewBox="0 0 16 16"><rect id="frame" width="16" height="16" fill="none"/><g fill-rule="evenodd"><path fill="#6E6E6E" d="M10.415 14H15v-1h-3.59l-.995 1zM13 2h-3v11l3-3.018V2zm-1 1v6.569l-1 1.006V3h1z"/><path fill="#389FD6" d="M4.976 10.76l-1.1-1.02L5.954 7.5 3.876 5.26l1.1-1.02L8 7.5z"/></g></svg>
